!!!SOCIAL_FUNCTION:	war songs
!!!PDT:	1939
!!!OTL: No_103_Song_of_Those_Who_Remained_at_Home.krn
!!!LANG: Non-Tone
!!!LING_GROUP: Wakashan
!!!REG: Pacific Northwest
**kern
*staff1
=1-
*clefF4
*k[]
*M2/4
4F\
4G\
=2
16A\LK
8.G\J
[4G\
=3
2G\]
=4||
*M3/4
2G\
4r
=5
4G\
4G\
4G\
=6
12G\L
12F\
12C\J
8F\
8r
4A\
=7
16A\LK
8.G\J
4A\
16A\LK
8.G\J
=8||
*M2/4
12G\L
12F\
12C\J
8F\
8r
=9
4G\
4A\
=10
4G\
8.G/L
16C/Jk
=11
4G\
[4G\
=12
8G\]
8r
4A\
=13||
*M3/4
16A\LK
8.G\J
4A\
16A\LK
8.G\J
=14||
*M2/4
12G\L
12F\
12C\J
8F\
8r
=15
4G\
4A\
=16
4G\
8.G/L
16C/Jk
=17
4G\
[4G\
=18
4G\]
4r
=19
2G\
=20
2G\
=21
12G\L
12F\
12C\J
8F\
8r
=22||
*M3/4
16A\LK
8.G\J
4A\
16A\LL
16G\JJ
8r
=23||
*M2/4
12G\L
12F\
12C\J
16A\LK
8.G\J
=24
2G\
=25
12G\L
12F\
12C\J
4G\
=26
4A\
16A\LK
8.G\J
=27||
*M3/4
12G\L
12F\
12C\J
8F\
8r
4G\
=28
12G\L
12F\
12C\J
4F\
8F\L
8G\J
=29
2.G\
==
*-
